X:1
T:MAILIED
T:Felix Mendelssohn-Bartholdy
T:MAILIED
T:opus 41 no.5
C:Felix Mendelssohn-Bartholdy
%%score [ 1 2 3 4 ]
L:1/8
Q:1/4=104
M:4/4
K:Bb
V:1 treble nm="Sopran" snm="S."
V:2 treble nm="Alt" snm="A."
V:3 treble-8 transpose=-12 nm="Tenor" snm="T."
V:4 bass nm="Bass" snm="B."
V:1
!f! F FB B d | d3 d e2 d>c | B3!p! B B2 B2 | !>!d>c BB B2 B2 | !>!d>c B"^cresc."B B2 B2 | %5
w: 1.Der Schnee _ zer- *|rinnt, der Mai- * be-|ginnt, und Blü- then|kei- * men auf Gar- ten-|Baü- * men, der Schnee zer-|
w: 2.Pflückt ei- * nen _|Kranz und hal- * tet|Tanz auf grü- nen|Au- * en, ihr schö- nen|Frau- * en, pflück ei- nen|
 g2 =ed c3 B | A2 z!p! A dBAG | G2 z G BGF=E | F2 z!f! F FAAc | e3 d c2 B2 | f8- | f6 z2 | %12
w: rinnt- * der Mai be-|ginnt der Schnee _ zer- *|rinnt, der Mai _ be- *|ginnt, und Vö- * gel _|schall tönt ü- ber-|all|_|
w: Kranz _ und hal- tet|Tanz auf grü- * nen _|Au'n ihr schö- * nen _|Frau'n wo grü- * ne _|Mai'n uns Küh- lung|streu'n|_|
 z2!>(! f2 feed | dccB BABG | F2!>)! z!f! F FBBd | d2 c>B d2 c>B |"^dim." B8- | B2 z!f! B d2 c>B | %18
w: und Vo- * gel- *|schall _ tönt _ ü- * ber- *|all und Vo- * gel- *|schall _ tönt ü- * ber-|all|_ tönt rit. * ber-|
w: wo grü- * ne _|Mai'n _ uns _ Küh- * lung _|streu'n, wo grü- * ne _|Mai'n _ uns Küh- * lung|streu'n|_ uns Küh- * lung|
 B3 x5 :| %19
w: all.|
w: streu'n.|
V:2
!f! D D2 F2 | B3 B A3 A | B3!p! F F=EDE | F2 FF F=EDE | F2 F"^cresc."F FAGF | =E3 F G2 E2 | %6
w: ||||||
w: ||||||
 F2 z2!p! F4- | F2 F2 =E2 C2 | C2 z2 z4 | z8 | z2 z!f! A A2 c2 | F3 F E2 D2 |!>(! G8- | %13
w: * Ja|_ der Mai be-|ginnt||und Vö- gel-|schall tönt ü- ber-|all|
w: * Ja|_ und hal- tet|Tanz||wo grü- ne|Mai'n uns Küh- lung|streu'n|
 G2 C2 C2 ^C2 | D2!>)! z!f! D DFFB | B3 F B2 A2 | B2 z!p! F A2 G>F | F2 z!f! D F2 E>D | D3 x5 :| %19
w: _ tönt ü- ber-|all * * * * *|||* * rit. * *||
w: _ uns Küh- lung|streu'n * * * * *|||||
V:3
!f! B Bd d f | f3 f g2 f>e |!p! d3 d B2 B2 | B>c dd B2 B2 | B>c d"^cresc."d B2 B2 | B3 B G2 c2 | %6
w: 1.Der Schnee _ zer- *|rinnt, der Mai- * be-|ginnt, und Blü- then|kei- * men auf Gar- ten-|Baü- * men, der Schnee zer-|rinnt- der Mai *|
w: 2.Pflückt ei- * nen _|Kranz und hal- * tet|Tanz auf grü- nen|Au- * en, ihr schö- nen|Frau- * en, pflück ei- nen|Kranz und hal- *|
 F2 z2!p! G4- | G2 G2 G2 B2 | A2 z2 z4 | z8 | z2 z!f! F FAAc | e3 d c2 B2 |!>(! B8- | B2 B2 B2 B2 | %14
w: ginnt Ja|_ der Mai be-|ginnt||und Vö- * gel- *|schall tönt ü- ber-|all|_ tönt ü- ber-|
w: Tanz Ja|_ und hal- tet|Tanz||wo grü- * ne *|Mai'n uns Küh- lung|streu'n|_ uns Küh- lung|
 B2!>)! z!f! B Bddf | f2 e>d f2 e>d | d2 z!p! d f2 e>d | d2 z!f! B B2 A2 | B3 x5 :| %19
w: all und Vo- * gel- *|schall _ tönt ü- * ber-|all * * * *|* tönt rit. *|all.|
w: streu'n wo grü- * ne _|Mai'n _ uns Küh- * lung|streu'n * * * *|* uns Küh- *|streu'n.|
V:4
!f! B, B,2 B,2 | B,3 B, F,3 F, | B,3!p! B, G,2 G,2 | F,2 F,F, G,2 G,2 | F,2 F,"^cresc."F, G,2 G,2 | %5
w: |||||
w: |||||
 C,3 D, =E,2 C,2 | D,2 z2!p! B,,4- | B,,2 B,,2 C,2 C,2 | F,2 z2 z4 | z8 | z2 z!f! F, F,2 F,2 | %11
w: ||||||
w: ||||||
 F,3 G, A,2 B,2 |!>(! E,8- | E,2 E,2 E,2!>)! =E,2 | F,8- | F,2 z F, F,2 F,2 |"^dim." B,,8- | %17
w: ||* tönt ü- ber-|all|_ tönt ü- ber-|all|
w: ||* uns Küh- lung|streu'n|_ uns Küh- lung|streu'n|
 B,,2 z!f! B, F,2 F,2 | B,,3 x5 :| %19
w: _ tönt rit. ber-|all.|
w: _ uns Küh- lung|streu'n.|

